src/lib/packages/icons/src/assets/filled/cycling.svg

<svg xmlns="http://www.w3.org/2000/svg" width="24" height="24" fill="none"><path fill="currentColor" d="M16 4.5c0 .83-.67 1.5-1.5 1.5S13 5.33 13 4.5 13.67 3 14.5 3s1.5.67 1.5 1.5ZM12.75 18v-3.07c0-.86-.48-1.63-1.24-2.01l-1.31-.65a.713.713 0 0 1-.4-.55c-.03-.24.04-.48.21-.65l1.47-1.47c.29-.29.77-.29 1.06 0l1.5 1.5c.42.42 1 .66 1.59.66h1.38c.41 0 .75-.34.75-.75s-.34-.75-.75-.75h-1.38a.75.75 0 0 1-.53-.22l-1.5-1.5c-.88-.88-2.3-.88-3.18 0l-1.47 1.47c-.52.52-.75 1.23-.63 1.95s.56 1.32 1.21 1.65l1.31.65c.26.13.41.38.41.67V18c0 .41.34.75.75.75s.75-.34.75-.75ZM15 18c0 1.66 1.34 3 3 3s3-1.34 3-3-1.34-3-3-3-3 1.34-3 3ZM3 18c0 1.66 1.34 3 3 3s3-1.34 3-3-1.34-3-3-3-3 1.34-3 3Z"/></svg>

<svg width="24" height="24" viewBox="0 0 24 24" fill="none" xmlns="http://www.w3.org/2000/svg">
<path d="M16 4.5C16 5.33 15.33 6 14.5 6C13.67 6 13 5.33 13 4.5C13 3.67 13.67 3 14.5 3C15.33 3 16 3.67 16 4.5ZM12.75 18V14.93C12.75 14.07 12.27 13.3 11.51 12.92L10.2 12.27C9.98001 12.16 9.82999 11.96 9.79999 11.72C9.76999 11.48 9.84001 11.24 10.01 11.07L11.48 9.60001C11.77 9.31001 12.25 9.31001 12.54 9.60001L14.04 11.1C14.46 11.52 15.04 11.76 15.63 11.76H17.01C17.42 11.76 17.76 11.42 17.76 11.01C17.76 10.6 17.42 10.26 17.01 10.26H15.63C15.43 10.26 15.24 10.18 15.1 10.04L13.6 8.53999C12.72 7.65999 11.3 7.65999 10.42 8.53999L8.95001 10.01C8.43001 10.53 8.20001 11.24 8.32001 11.96C8.44001 12.68 8.88 13.28 9.53 13.61L10.84 14.26C11.1 14.39 11.25 14.64 11.25 14.93V18C11.25 18.41 11.59 18.75 12 18.75C12.41 18.75 12.75 18.41 12.75 18ZM15 18C15 19.66 16.34 21 18 21C19.66 21 21 19.66 21 18C21 16.34 19.66 15 18 15C16.34 15 15 16.34 15 18ZM3 18C3 19.66 4.34 21 6 21C7.66 21 9 19.66 9 18C9 16.34 7.66 15 6 15C4.34 15 3 16.34 3 18Z" fill="currentColor"/>
</svg>
